logo/d3.svg

<?xml version="1.0" encoding="UTF-8" standalone="no" ?>
<svg width="256px" height="243px" viewBox="0 0 256 243" version="1.1" xmlns="http://www.w3.org/2000/svg" xmlns:xlink="http://www.w3.org/1999/xlink" preserveAspectRatio="xMidYMid">
    <defs>
        <linearGradient x1="-82.6367258%" y1="-92.819878%" x2="103.767353%" y2="106.041826%" id="linearGradient-1">
            <stop stop-color="#F9A03C" offset="0%"></stop>
            <stop stop-color="#F7974E" offset="100%"></stop>
        </linearGradient>
        <linearGradient x1="-258.923825%" y1="-248.970263%" x2="97.6202479%" y2="98.7684937%" id="linearGradient-2">
            <stop stop-color="#F9A03C" offset="0%"></stop>
            <stop stop-color="#F7974E" offset="100%"></stop>
        </linearGradient>
        <linearGradient x1="-223.162629%" y1="-261.967947%" x2="94.0283377%" y2="101.690818%" id="linearGradient-3">
            <stop stop-color="#F9A03C" offset="0%"></stop>
            <stop stop-color="#F7974E" offset="100%"></stop>
        </linearGradient>
        <linearGradient x1="11.3387123%" y1="-1.82169774%" x2="82.496193%" y2="92.1067478%" id="linearGradient-4">
            <stop stop-color="#F26D58" offset="0%"></stop>
            <stop stop-color="#F9A03C" offset="100%"></stop>
        </linearGradient>
        <linearGradient x1="15.8436473%" y1="3.85803114%" x2="120.126091%" y2="72.3802579%" id="linearGradient-5">
            <stop stop-color="#B84E51" offset="0%"></stop>
            <stop stop-color="#F68E48" offset="100%"></stop>
        </linearGradient>
        <linearGradient x1="46.9841705%" y1="23.4664325%" x2="51.881003%" y2="147.391179%" id="linearGradient-6">
            <stop stop-color="#F9A03C" offset="0%"></stop>
            <stop stop-color="#F7974E" offset="100%"></stop>
        </linearGradient>
    </defs>
    <g>
        <path d="M255.52,175.618667 C255.634667,174.504 255.717333,173.378667 255.781333,172.248 C255.858667,170.909333 175.218667,94.3973333 175.218667,94.3973333 L173.290667,94.3973333 C173.290667,94.3973333 255.026667,180.613333 255.52,175.618667 L255.52,175.618667 L255.52,175.618667 Z" fill="url(#linearGradient-1)"></path>
        <path d="M83.472,149.077333 C83.3653333,149.312 83.2586667,149.546667 83.1493333,149.781333 C83.0346667,150.026667 82.9173333,150.272 82.8,150.514667 C80.2293333,155.874667 118.786667,193.568 121.888,188.989333 C122.029333,188.786667 122.170667,188.573333 122.312,188.370667 C122.469333,188.130667 122.624,187.901333 122.778667,187.661333 C125.258667,183.896 84.5733333,146.629333 83.472,149.077333 L83.472,149.077333 L83.472,149.077333 Z" fill="url(#linearGradient-2)"></path>
        <path d="M137.957333,202.082667 C137.848,202.322667 137.072,203.634667 136.362667,204.328 C136.242667,204.568 174.002667,242.016 174.002667,242.016 L177.402667,242.016 C177.405333,242.016 141.957333,203.666667 137.957333,202.082667 L137.957333,202.082667 L137.957333,202.082667 Z" fill="url(#linearGradient-3)"></path>
        <path d="M255.834667,171.568 C254.069333,210.714667 221.682667,242.016 182.114667,242.016 L176.765333,242.016 L137.250667,203.088 C140.501333,198.504 143.522667,193.754667 146.213333,188.802667 L182.114667,188.802667 C193.469333,188.802667 202.709333,179.568 202.709333,168.208 C202.709333,156.853333 193.469333,147.613333 182.114667,147.613333 L160.869333,147.613333 C162.488,139.056 163.373333,130.232 163.373333,121.205333 C163.373333,112.04 162.472,103.090667 160.794667,94.3973333 L173.992,94.3973333 L255.602667,174.810667 C255.698667,173.733333 255.776,172.656 255.834667,171.568 L255.834667,171.568 L255.834667,171.568 Z M21.4666667,0 L0,0 L0,53.2133333 L21.4666667,53.2133333 C58.96,53.2133333 89.4666667,83.712 89.4666667,121.205333 C89.4666667,131.405333 87.192,141.088 83.1493333,149.781333 L122.312,188.370667 C135.170667,169.130667 142.688,146.032 142.688,121.205333 C142.688,54.3733333 88.3066667,0 21.4666667,0 L21.4666667,0 L21.4666667,0 Z" fill="url(#linearGradient-4)"></path>
        <path d="M182.114667,0 L95.1866667,0 C116.418667,12.9626667 134,31.344 145.978667,53.2133333 L182.114667,53.2133333 C193.469333,53.2133333 202.709333,62.448 202.709333,73.808 C202.709333,85.1653333 193.469333,94.4 182.114667,94.4 L173.994667,94.4 L255.605333,174.813333 C255.797333,172.632 255.917333,170.437333 255.917333,168.208 C255.917333,150.269333 249.48,133.813333 238.792,121.005333 C249.48,108.202667 255.917333,91.744 255.917333,73.808 C255.917333,33.112 222.813333,0 182.114667,0 L182.114667,0 L182.114667,0 Z" fill="url(#linearGradient-5)"></path>
        <path d="M176.765333,242.016 L95.808,242.016 C112.104,231.952 126.192,218.666667 137.250667,203.088 L176.765333,242.016 L176.765333,242.016 Z M122.312,188.370667 L83.152,149.781333 C72.3333333,173.032 48.7573333,189.202667 21.4666667,189.202667 L0,189.202667 L0,242.410667 L21.4666667,242.410667 C63.4773333,242.410667 100.557333,220.922667 122.312,188.370667 L122.312,188.370667 L122.312,188.370667 Z" fill="url(#linearGradient-6)"></path>
    </g>
</svg>

<svg viewBox="0 0 256 243" xmlns="http://www.w3.org/2000/svg" xmlns:xlink="http://www.w3.org/1999/xlink"><defs><linearGradient id="a" x1="-82.637%" x2="103.767%" y1="-92.82%" y2="106.041%"><stop offset="0%" stop-color="#F9A03C"/><stop offset="100%" stop-color="#F7974E"/></linearGradient><linearGradient id="b" x1="-258.924%" x2="97.62%" y1="-248.971%" y2="98.768%" xlink:href="#a"/><linearGradient id="c" x1="-223.163%" x2="94.028%" y1="-261.968%" y2="101.69%" xlink:href="#a"/><linearGradient id="d" x1="11.338%" x2="82.496%" y1="-1.822%" y2="92.106%"><stop offset="0%" stop-color="#F26D58"/><stop offset="100%" stop-color="#F9A03C"/></linearGradient><linearGradient id="e" x1="15.843%" x2="120.126%" y1="3.858%" y2="72.38%"><stop offset="0%" stop-color="#B84E51"/><stop offset="100%" stop-color="#F68E48"/></linearGradient><linearGradient id="f" x1="46.984%" x2="51.881%" y1="23.466%" y2="147.391%" xlink:href="#a"/></defs><path fill="url(#a)" d="M255.52 175.61c.11-1.12.19-2.24.26-3.38 .07-1.34-80.57-77.86-80.57-77.86h-1.93s81.73 86.21 82.22 81.22v0 0Z"/><path fill="url(#b)" d="M83.472 149.07c-.11.23-.22.46-.33.7 -.12.24-.24.49-.35.73 -2.58 5.36 35.98 43.05 39.08 38.47 .14-.21.28-.42.42-.62 .15-.24.31-.47.46-.71 2.48-3.77-38.21-41.04-39.31-38.584v0 0Z"/><path fill="url(#c)" d="M137.95 202.08c-.11.24-.89 1.55-1.6 2.24 -.12.24 37.64 37.68 37.64 37.68h3.4s-35.45-38.35-39.45-39.94v0 0Z"/><path fill="url(#d)" d="M255.83 171.568c-1.77 39.14-34.16 70.44-73.72 70.44h-5.35l-39.52-38.93c3.25-4.59 6.27-9.34 8.96-14.29h35.9c11.35 0 20.59-9.24 20.59-20.6 0-11.36-9.24-20.6-20.6-20.6h-21.25c1.61-8.56 2.5-17.39 2.5-26.41 0-9.17-.91-18.12-2.58-26.81h13.19l81.61 80.41c.09-1.08.17-2.16.23-3.25v0 0ZM21.46 0H-.01v53.21h21.46c37.49 0 68 30.49 68 67.99 0 10.2-2.28 19.88-6.32 28.57l39.16 38.58c12.85-19.24 20.37-42.34 20.37-67.17C142.66 54.34 88.27-.03 21.43-.03v0 0Z"/><path fill="url(#e)" d="M182.11 0H95.18c21.23 12.96 38.81 31.344 50.79 53.21h36.13c11.35 0 20.59 9.23 20.59 20.59 0 11.35-9.24 20.59-20.6 20.59h-8.12l81.61 80.41c.19-2.19.31-4.38.31-6.61 0-17.94-6.44-34.4-17.13-47.21 10.68-12.81 17.12-29.27 17.12-47.2 0-40.7-33.11-73.81-73.81-73.81v0 0Z"/><path fill="url(#f)" d="M176.76 242.016H95.8c16.29-10.07 30.384-23.35 41.44-38.93L176.75 242v0Zm-54.46-53.65l-39.16-38.59c-10.82 23.25-34.4 39.42-61.69 39.42H-.02V242.4h21.46c42.01 0 79.09-21.49 100.84-54.04v0 0Z"/></svg>
